X:1
T:Sandy's New Chanter
R:reel
S:Battlefield Band
Z:Juergen Gier
M:4/4
L:1/8
K:D
de | f2ef fAef | fgfg B2fg | fAdf faga | eAce eage |
| f2ef fAef | fgfg B2fg | fAdf eAce |1 d4 d2ag :|2 d4 d2A2 ||
|: a2fa dffd | fgfg B2fg | fAdf faga | eAce eage |
| a2fa dffd | fgfg B2fg | fAdf eAce | d4 d2A2 :|
